X: 1
T: Maids Of Tulla, The
M: 4/4
L: 1/8
R: reel
K: Gmaj
G2BG DGBA|GFGB dcBc|ABcd ecc/B/c|ecaf gedB| 
G2BG DGBA|GFGB dcBc|ABcd ecge|1dBcA GDEF:|2dBcA G3||
|:f|g2GA ~B3d|g2fg edeg|aeed edeg|aeed ^cdef|
gGGA BGB/c/d|g2fg edcB|ABcd ecge|1dBcA G3:|2dBcA GDEF||
